usr/share/icons/biglinux-icons-material-dark/22/actions/distribute-horizontal-left.svg

<svg xmlns="http://www.w3.org/2000/svg" viewBox="0 0 22 22">
  <defs id="defs3051">
    <style type="text/css" id="current-color-scheme">
      .ColorScheme-Text {
        color:#dedede;
      }
      </style>
  </defs>
 <path 
    style="fill:currentColor;fill-opacity:1;stroke:none" 
	d="m7 3l-3 2 3 2v-4m2 0v4l3-2-3-2m-6 3v3 6 4h1v-4h6v-7h-6v-2h-1m9 0v3 8 2h1v-2h6v-9h-6v-2h-1m-8 3h5v5h-5v-5m9 0h5v7h-5v-7"
	class="ColorScheme-Text"
    />
</svg>

<svg xmlns="http://www.w3.org/2000/svg" viewBox="0 0 22 22">
<defs id="defs3051">
<style id="current-color-scheme" type="text/css">
.ColorScheme-Text{color:#dedede}
</style>
</defs>
<path d="M7 3 4 5l3 2zm2 0v4l3-2zM3 6v13h1v-4h6V8H4V6zm9 0v13h1v-2h6V8h-6V6zM4 9h5v5H4zm9 0h5v7h-5z" class="ColorScheme-Text" style="fill:currentColor;fill-opacity:1;stroke:none"/>
</svg>
